nameplates/wraith.svg

<svg width="1836" height="514" viewBox="0 0 1836 514" fill="none" xmlns="http://www.w3.org/2000/svg">
<g clip-path="url(#clip0_22600_472)">
<path d="M79.6026 506.891C94.9108 500.111 103.768 487.753 98.5192 456.913C77.5251 324.476 56.4216 191.164 35.4275 56.7587C30.0697 25.4813 15.9643 11.0455 0 1.31234V0C42.6443 5.35872 85.2885 9.84255 127.933 13.5609C127.933 13.9983 127.933 14.4357 127.933 14.8732C113.171 21.2162 104.314 33.1366 109.016 64.086C124.543 176.4 140.07 288.168 155.706 399.389C172.436 306.978 189.166 214.786 205.786 123.032C211.691 93.0668 202.834 79.9434 188.728 71.5226V70.2102C230.826 72.9443 272.814 75.0221 314.912 76.5532C314.912 76.9906 314.912 77.4281 314.912 77.7562C300.806 84.7553 291.949 96.8945 297.854 127.188C314.583 219.708 331.313 311.79 347.934 403.326C363.679 294.73 379.425 186.462 395.17 78.7404C399.872 49.1034 391.015 36.5268 376.254 28.6528V27.4498C418.242 28.6528 460.339 29.1996 502.328 29.5277C502.328 29.9651 502.328 30.2932 502.328 30.7306C486.363 38.0579 472.258 50.197 466.9 79.7247C445.906 206.475 424.803 333.881 403.808 461.834C398.451 491.69 407.307 503.939 422.725 510.938V512.141C372.973 513.453 323.222 514.109 273.47 513.891V512.688C287.575 505.251 296.432 492.674 291.184 462.6C278.062 389.328 264.832 315.618 251.711 241.689C238.589 314.743 225.359 388.015 212.237 461.506C206.879 491.69 215.736 504.486 229.951 512.25V513.563C179.871 512.797 129.682 511.157 79.6026 508.423C79.6026 507.985 79.6026 507.548 79.6026 507.11V506.891Z" fill="white"/>
<path d="M799.854 491.362C799.854 491.362 799.854 492.128 799.854 492.565C754.257 495.627 708.661 498.58 663.064 501.314V500.111C676.623 491.472 682.527 478.458 671.921 448.274C661.096 416.996 650.271 385.719 639.446 354.223C634.088 355.097 628.293 355.316 622.935 355.535C615.281 355.863 607.627 356.191 599.972 356.41V454.289C599.972 484.144 611.782 495.627 627.637 502.08C627.637 502.517 627.637 502.845 627.637 503.283C582.259 505.798 536.771 507.985 491.394 509.735V508.532C507.358 500.549 519.167 487.753 519.167 457.788C519.167 348.645 519.167 239.612 519.167 130.469C519.167 100.394 507.358 88.2549 491.394 80.8183V79.6153C535.241 79.7247 579.088 79.3966 622.935 78.7404C708.989 77.6468 769.784 133.312 769.784 212.162C769.784 258.859 748.571 299.214 713.144 325.023C728.233 366.252 743.432 407.263 758.522 448.055C768.581 474.958 783.89 485.347 799.854 491.472V491.362ZM622.935 277.888C660.659 276.576 687.229 249.017 687.229 215.224C687.229 181.431 660.659 155.731 622.935 156.497C615.281 156.715 607.627 156.825 599.972 156.934V278.544C607.627 278.326 615.281 278.107 622.935 277.779V277.888Z" fill="white"/>
<path d="M1091.8 471.349C1107.77 463.366 1119.58 451.008 1119.58 422.792V113.955C1119.58 85.6302 1107.77 74.3659 1091.8 67.8042V66.6012C1137.18 65.5076 1182.67 64.5234 1228.05 63.9766V65.0702C1212.08 72.1787 1200.38 83.771 1200.38 111.877V418.09C1200.38 446.196 1212.19 457.023 1228.05 463.037V464.131C1182.67 466.537 1137.18 469.271 1091.8 472.224V471.021V471.349Z" fill="white"/>
<path d="M1418.52 410.107C1418.52 437.556 1430.33 448.492 1446.3 454.945V456.038C1400.92 456.913 1355.43 458.444 1310.05 460.413V459.319C1326.02 451.883 1337.83 440.072 1337.72 412.403V134.078C1333.02 134.078 1328.31 134.078 1323.61 134.078C1289.39 134.406 1263.47 137.03 1238.11 162.074C1237.67 161.856 1237.34 161.746 1236.9 161.527C1245.98 128.719 1254.94 96.1291 1264.02 63.5394C1340.12 62.8832 1416.23 63.3206 1492.22 65.5079C1501.3 97.5508 1510.26 129.375 1519.34 161.309C1518.9 161.527 1518.57 161.637 1518.14 161.856C1492.77 137.359 1466.85 134.515 1432.63 134.187C1427.93 134.187 1423.22 134.187 1418.52 134.078V409.997V410.107Z" fill="white"/>
<path d="M1808.34 131.671V467.302C1808.34 493.659 1820.15 505.251 1836.11 512.906V514C1790.73 510.61 1745.24 508.204 1699.87 506.563V505.47C1715.83 499.455 1727.53 489.175 1727.53 462.49V304.244C1696.91 302.276 1666.19 300.744 1635.57 299.541V459.319C1635.57 486.222 1647.38 497.377 1663.24 504.267V505.36C1617.86 504.267 1572.37 504.048 1526.99 504.376V503.282C1542.96 496.502 1554.77 485.456 1554.77 458.335V113.736C1554.77 86.6143 1542.96 75.1313 1526.99 67.8041V66.7104C1572.37 68.3509 1617.86 70.7568 1663.24 73.819V74.9126C1647.27 80.3807 1635.57 90.6607 1635.57 117.454V226.05C1666.19 227.472 1696.91 229.222 1727.53 231.409V123.907C1727.53 97.3317 1715.72 85.4113 1699.87 77.6466V76.553C1745.24 80.1619 1790.73 84.6458 1836.11 90.1139V91.2075C1820.15 95.6913 1808.34 105.206 1808.34 131.562V131.671Z" fill="white"/>
<path d="M1051.67 427.386C1029.69 324.804 1007.61 221.458 985.629 117.564C979.725 89.6767 989.128 77.6469 1005.09 70.1009C1005.09 69.6635 1005.09 69.3354 1005.09 68.8979C946.484 70.5384 887.875 72.3975 829.376 74.0379V75.2409C845.34 81.912 854.744 93.5043 848.839 122.157C826.861 229.003 804.774 336.506 782.795 444.665C776.891 473.755 762.786 486.66 746.821 494.862C746.821 495.299 746.821 495.627 746.821 496.065C791.98 493.112 837.249 489.94 882.408 486.769V485.566C866.444 479.551 856.494 468.396 861.742 439.525C864.694 423.12 867.647 406.716 870.599 390.312C900.887 388.453 931.176 386.594 961.464 384.735C964.416 400.592 967.369 416.449 970.321 432.307C975.679 460.085 965.619 472.552 949.655 480.645V481.848C995.689 478.567 1041.61 475.395 1087.65 472.443V471.24C1071.68 465.334 1057.58 454.617 1051.67 427.057V427.386ZM959.824 276.248C955.997 292.324 938.83 306.322 916.961 293.089C916.961 293.089 915.539 315.837 935.659 321.961C936.971 322.398 938.283 322.945 939.705 323.383C940.142 324.695 940.579 326.117 941.017 327.429C930.738 327.976 920.351 328.523 910.072 329.179C910.072 329.179 909.854 328.96 909.744 328.851C909.744 328.96 909.526 329.069 909.416 329.179C900.45 329.726 891.593 330.163 882.627 330.6C883.064 329.179 883.502 327.757 883.939 326.335C885.251 325.679 886.563 325.132 887.985 324.476C908.104 316.055 906.683 293.527 906.683 293.527C884.923 309.056 867.647 296.808 863.82 280.95C859.993 265.093 868.74 248.798 879.018 236.112C889.297 223.426 911.822 178.806 911.822 178.806C911.822 178.806 934.347 221.458 944.625 233.05C954.903 244.642 963.651 259.953 959.824 276.029V276.248Z" fill="white"/>
</g>
<defs>
<clipPath id="clip0_22600_472">
<rect width="1836" height="514" fill="white"/>
</clipPath>
</defs>
</svg>

<svg xmlns="http://www.w3.org/2000/svg" width="1836" height="514" fill="none"><g fill="#fff" clip-path="url(#a)"><path d="M79.603 506.891c15.308-6.78 24.165-19.138 18.916-49.978C77.525 324.476 56.422 191.164 35.428 56.759 30.07 25.48 15.964 11.046 0 1.312V0c42.644 5.359 85.289 9.843 127.933 13.56v1.313c-14.762 6.343-23.619 18.264-18.917 49.213 15.527 112.314 31.054 224.082 46.69 335.303 16.73-92.411 33.46-184.603 50.08-276.357 5.905-29.965-2.952-43.089-17.058-51.51V70.21c42.098 2.734 84.086 4.812 126.184 6.343v1.203c-14.106 7-22.963 19.138-17.058 49.432 16.729 92.52 33.459 184.602 50.08 276.138A284796 284796 0 0 1 395.17 78.74c4.702-29.637-4.155-42.213-18.916-50.087V27.45c41.988 1.203 84.085 1.75 126.074 2.078v1.203c-15.965 7.327-30.07 19.466-35.428 48.994-20.994 126.75-42.097 254.156-63.092 382.109-5.357 29.856 3.499 42.105 18.917 49.104v1.203c-49.752 1.312-99.503 1.968-149.255 1.75v-1.203c14.105-7.437 22.962-20.014 17.714-50.088-13.122-73.272-26.352-146.982-39.473-220.911-13.122 73.054-26.352 146.326-39.474 219.817-5.358 30.184 3.499 42.98 17.714 50.744v1.313c-50.08-.766-100.269-2.406-150.348-5.14z"/><path d="M799.854 491.362v1.203c-45.597 3.062-91.193 6.015-136.79 8.749v-1.203c13.559-8.639 19.463-21.653 8.857-51.837-10.825-31.278-21.65-62.555-32.475-94.051-5.358.874-11.153 1.093-16.511 1.312-7.654.328-15.308.656-22.963.875v97.879c0 29.855 11.81 41.338 27.665 47.791v1.203c-45.378 2.515-90.866 4.702-136.243 6.452v-1.203c15.964-7.983 27.773-20.779 27.773-50.744V130.469c0-30.075-11.809-42.214-27.773-49.65v-1.204c43.847.11 87.694-.218 131.541-.875 86.054-1.093 146.849 54.572 146.849 133.422 0 46.697-21.213 87.052-56.64 112.861 15.089 41.229 30.288 82.24 45.378 123.032 10.059 26.903 25.368 37.292 41.332 43.417zM622.935 277.888c37.724-1.312 64.294-28.871 64.294-62.664s-26.57-59.493-64.294-58.727c-7.654.218-15.308.328-22.963.437v121.61c7.655-.218 15.309-.437 22.963-.765zM1091.8 471.349c15.97-7.983 27.78-20.341 27.78-48.557V113.955c0-28.325-11.81-39.59-27.78-46.15V66.6c45.38-1.093 90.87-2.078 136.25-2.624v1.093c-15.97 7.109-27.67 18.701-27.67 46.807V418.09c0 28.106 11.81 38.933 27.67 44.947v1.094c-45.38 2.406-90.87 5.14-136.25 8.093v-1.203zm326.72-61.242c0 27.449 11.81 38.385 27.78 44.838v1.093c-45.38.875-90.87 2.406-136.25 4.375v-1.094c15.97-7.436 27.78-19.247 27.67-46.916V134.078h-14.11c-34.22.328-60.14 2.952-85.5 27.996-.44-.218-.77-.328-1.21-.547 9.08-32.808 18.04-65.398 27.12-97.988 76.1-.656 152.21-.218 228.2 1.969 9.08 32.043 18.04 63.867 27.12 95.801-.44.218-.77.328-1.2.547-25.37-24.497-51.29-27.341-85.51-27.669-4.7 0-9.41 0-14.11-.109zm389.82-278.436v335.631c0 26.357 11.81 37.949 27.77 45.604V514c-45.38-3.39-90.87-5.796-136.24-7.437v-1.093c15.96-6.015 27.66-16.295 27.66-42.98V304.244c-30.62-1.968-61.34-3.5-91.96-4.703v159.778c0 26.903 11.81 38.058 27.67 44.948v1.093c-45.38-1.093-90.87-1.312-136.25-.984v-1.094c15.97-6.78 27.78-17.826 27.78-44.947V113.736c0-27.122-11.81-38.605-27.78-45.932V66.71c45.38 1.64 90.87 4.047 136.25 7.109v1.094c-15.97 5.468-27.67 15.748-27.67 42.541V226.05c30.62 1.422 61.34 3.172 91.96 5.359V123.907c0-26.575-11.81-38.496-27.66-46.26v-1.094c45.37 3.609 90.86 8.093 136.24 13.56v1.094c-15.96 4.484-27.77 13.999-27.77 40.355z"/><path d="M1051.67 427.386c-21.98-102.582-44.06-205.928-66.041-309.822-5.904-27.887 3.499-39.917 19.461-47.463v-1.203c-58.606 1.64-117.215 3.5-175.714 5.14v1.203c15.964 6.671 25.368 18.263 19.463 46.916-21.978 106.846-44.065 214.349-66.044 322.508-5.904 29.09-20.009 41.995-35.974 50.197v1.203c45.159-2.953 90.428-6.125 135.587-9.296v-1.203c-15.964-6.015-25.914-17.17-20.666-46.041l8.857-49.213 90.865-5.577 8.857 47.572c5.358 27.778-4.702 40.245-20.666 48.338v1.203c46.034-3.281 91.955-6.453 137.995-9.405v-1.203c-15.97-5.906-30.07-16.623-35.98-44.183zm-91.846-151.138c-3.827 16.076-20.994 30.074-42.863 16.841 0 0-1.422 22.748 18.698 28.872 1.312.437 2.624.984 4.046 1.422.437 1.312.874 2.734 1.312 4.046-10.279.547-20.666 1.094-30.945 1.75l-.328-.328c0 .109-.218.218-.328.328-8.966.547-17.823.984-26.789 1.421l1.312-4.265c1.312-.656 2.624-1.203 4.046-1.859 20.119-8.421 18.698-30.949 18.698-30.949-21.76 15.529-39.036 3.281-42.863-12.577-3.827-15.857 4.92-32.152 15.198-44.838s32.804-57.306 32.804-57.306 22.525 42.652 32.803 54.244 19.026 26.903 15.199 42.979z"/></g><defs><clipPath id="a"><path fill="#fff" d="M0 0h1836v514H0z"/></clipPath></defs></svg>
